src/assets/imgs/hair-palette-page/carousel/left-arrow.svg

<svg fill="none" height="37" viewBox="0 0 21 37" width="21" xmlns="http://www.w3.org/2000/svg"><path d="m17.4126 34.7915c.2295.2294.5163.3441.8318.3441s.6023-.1147.8318-.3441c.4589-.459.4589-1.2047 0-1.6636l-14.6279-14.6279 14.6279-14.62793c.4589-.45891.4589-1.20465 0-1.66357-.4589-.45891-1.2047-.45891-1.6636 0l-15.48834 15.4597c-.45891.4589-.45891 1.2046 0 1.6636z" fill="#fff" stroke="#fff" stroke-width="2"/></svg>

<svg width="21" height="37" viewBox="0 0 21 37" fill="none" xmlns="http://www.w3.org/2000/svg">
<path d="M17.4126 34.7915C17.6421 35.0209 17.9289 35.1356 18.2444 35.1356C18.5599 35.1356 18.8467 35.0209 19.0762 34.7915C19.5351 34.3325 19.5351 33.5868 19.0762 33.1279L4.4483 18.5L19.0762 3.87207C19.5351 3.41316 19.5351 2.66742 19.0762 2.2085C18.6173 1.74959 17.8715 1.74959 17.4126 2.2085L1.92426 17.6682C1.46535 18.1271 1.46535 18.8728 1.92426 19.3318L17.4126 34.7915Z" fill="white" stroke="white" stroke-width="2"/>
</svg>
